X: 24813
T: Maggie Pickins
R: strathspey
M: 4/4
K: Amajor
|:AFEF AB c2|(3dcB cA BAFA|AFEF ABcd|efec (3BcB A2:|
feae f2 af|eccA BAFA|feae f2 af|eccA (3BcB A2|
feae f2 af|eccA BAFA|AFEF ABcd|efec (3BcB A2|

